app/img/step-7/var-1.svg

<svg width="90" height="90" viewBox="0 0 90 90" fill="none" xmlns="http://www.w3.org/2000/svg">
<path d="M45 90C69.8528 90 90 69.8528 90 45C90 20.1472 69.8528 0 45 0C20.1472 0 0 20.1472 0 45C0 69.8528 20.1472 90 45 90Z" fill="#FFE14D"/>
<path d="M90 45C90 20.1869 69.8131 0 45 0V90C69.8131 90 90 69.8131 90 45Z" fill="#FFBB33"/>
<path d="M45 79.2773C26.1 79.2773 10.7227 63.9 10.7227 45C10.7227 26.1 26.1 10.7227 45 10.7227C63.9 10.7227 79.2773 26.1 79.2773 45C79.2773 63.9 63.9 79.2773 45 79.2773Z" fill="#FFBB33"/>
<path d="M79.2773 45C79.2773 26.1 63.9 10.7227 45 10.7227V79.2773C63.9 79.2773 79.2773 63.9 79.2773 45Z" fill="#E68A2E"/>
<path d="M47.6367 42.551V32.1262C50.6693 32.8702 52.9102 34.8214 52.9102 37.0642C52.9102 38.5216 54.0895 39.7009 55.5469 39.7009C57.0043 39.7009 58.1836 38.5216 58.1836 37.0642C58.1836 31.9697 53.6483 27.7102 47.6367 26.7307V23.8806C47.6367 22.4232 46.4574 21.2439 45 21.2439C43.5426 21.2439 42.3633 22.4232 42.3633 23.8806V26.7307C36.3517 27.7102 31.8164 31.9697 31.8164 37.0642C31.8164 42.1587 36.3517 46.4182 42.3633 47.3977V57.8226C39.3307 57.0785 37.0898 55.1273 37.0898 52.8845C37.0898 51.4271 35.9105 50.2478 34.4531 50.2478C32.9957 50.2478 31.8164 51.4271 31.8164 52.8845C31.8164 57.979 36.3517 62.2385 42.3633 63.218V66.0938C42.3633 67.5512 43.5426 68.7305 45 68.7305C46.4574 68.7305 47.6367 67.5512 47.6367 66.0938V63.218C53.6483 62.2385 58.1836 57.979 58.1836 52.8845C58.1836 47.79 53.6483 43.5303 47.6367 42.551ZM37.0898 37.0642C37.0898 34.8214 39.3307 32.8702 42.3633 32.1262V42.0023C39.3307 41.258 37.0898 39.3068 37.0898 37.0642ZM47.6367 57.8226V47.9465C50.6693 48.6906 52.9102 50.6417 52.9102 52.8845C52.9102 55.1273 50.6693 57.0783 47.6367 57.8226Z" fill="#FFE14D"/>
<path d="M47.6367 66.0938V63.218C53.6483 62.2385 58.1836 57.979 58.1836 52.8845C58.1836 47.79 53.6483 43.5305 47.6367 42.551V32.1262C50.6693 32.8702 52.9102 34.8214 52.9102 37.0642C52.9102 38.5216 54.0895 39.7009 55.5469 39.7009C57.0043 39.7009 58.1836 38.5216 58.1836 37.0642C58.1836 31.9697 53.6483 27.7102 47.6367 26.7307V23.8806C47.6367 22.4232 46.4574 21.2439 45 21.2439V68.7305C46.4574 68.7305 47.6367 67.5512 47.6367 66.0938ZM47.6367 47.9463C50.6693 48.6904 52.9102 50.6416 52.9102 52.8843C52.9102 55.1271 50.6693 57.0783 47.6367 57.8224V47.9463Z" fill="#FFBB33"/>
</svg>

<svg width="90" height="90" fill="none" xmlns="http://www.w3.org/2000/svg"><path d="M45 90c24.853 0 45-20.147 45-45S69.853 0 45 0 0 20.147 0 45s20.147 45 45 45z" fill="#FFE14D"/><path d="M90 45C90 20.187 69.813 0 45 0v90c24.813 0 45-20.187 45-45z" fill="#FB3"/><path d="M45 79.277C26.1 79.277 10.723 63.9 10.723 45S26.1 10.723 45 10.723 79.277 26.1 79.277 45 63.9 79.277 45 79.277z" fill="#FB3"/><path d="M79.277 45C79.277 26.1 63.9 10.723 45 10.723v68.554C63.9 79.277 79.277 63.9 79.277 45z" fill="#E68A2E"/><path d="M47.637 42.551V32.126c3.032.744 5.273 2.695 5.273 4.938a2.635 2.635 0 002.637 2.637 2.635 2.635 0 002.637-2.637c0-5.094-4.536-9.354-10.547-10.333v-2.85A2.635 2.635 0 0045 21.244a2.635 2.635 0 00-2.637 2.637v2.85c-6.011.98-10.547 5.239-10.547 10.333 0 5.095 4.536 9.354 10.547 10.334v10.425c-3.032-.745-5.273-2.696-5.273-4.938a2.635 2.635 0 00-2.637-2.637 2.635 2.635 0 00-2.637 2.637c0 5.094 4.536 9.354 10.547 10.333v2.876A2.635 2.635 0 0045 68.73a2.635 2.635 0 002.637-2.637v-2.876c6.011-.98 10.547-5.239 10.547-10.334 0-5.094-4.536-9.354-10.547-10.333zM37.09 37.064c0-2.243 2.24-4.194 5.273-4.938v9.876c-3.032-.744-5.273-2.695-5.273-4.938zm10.547 20.759v-9.877c3.032.745 5.273 2.696 5.273 4.939 0 2.242-2.24 4.193-5.273 4.938z" fill="#FFE14D"/><path d="M47.637 66.094v-2.876c6.011-.98 10.547-5.239 10.547-10.334 0-5.094-4.536-9.353-10.547-10.333V32.126c3.032.744 5.273 2.695 5.273 4.938a2.635 2.635 0 002.637 2.637 2.635 2.635 0 002.637-2.637c0-5.094-4.536-9.354-10.547-10.333v-2.85A2.635 2.635 0 0045 21.244V68.73a2.635 2.635 0 002.637-2.637zm0-18.148c3.032.744 5.273 2.696 5.273 4.938 0 2.243-2.24 4.194-5.273 4.938v-9.876z" fill="#FB3"/></svg>
